img/svg-psychic.svg

<svg width="16" height="16" viewBox="0 0 16 16" fill="none" xmlns="http://www.w3.org/2000/svg">
<path fill-rule="evenodd" clip-rule="evenodd" d="M14.0865 13.2884C14.0865 13.2884 12.0688 14.9067 8.05364 14.237C5.00737 13.729 3.38263 10.3709 3.38263 8.5659C3.38263 4.28637 6.55004 3.31248 8.69142 3.31248C10.8328 3.31248 12.2297 5.40021 12.2297 7.01663C12.2297 8.63306 11.0865 10.0469 9.3073 10.0469C7.52817 10.0469 7.00124 8.79786 7.00124 7.64952C7.00124 6.5012 7.93031 6.09663 8.77762 6.09663C9.62493 6.09663 9.91506 6.82002 9.91506 7.44174C9.91506 8.0635 9.43266 8.28615 9.0303 8.28615C8.62795 8.28615 8.58816 8.08316 8.43418 7.86982C8.28016 7.65652 8.63057 6.84905 8.05364 6.84905C7.4767 6.84905 7.36916 7.77731 7.36916 7.77731C7.36916 7.77731 7.57949 9.56916 9.3073 9.53825C11.0351 9.50731 11.8548 8.17154 11.6166 6.84905C11.3784 5.52654 10.0949 4.12123 7.84236 4.4052C5.58981 4.68916 4.67011 6.96516 5.0755 9.39742C5.48089 11.8297 8.39474 13.239 10.6858 12.732C12.9768 12.2249 15.2587 10.5663 15.2587 6.3611C15.2587 2.15582 11.6166 -0.371921 7.2738 0.0446655C2.93099 0.46125 0.235165 4.25802 0.407721 8.81992C0.580278 13.3818 4.90898 15.8664 8.56935 15.9944C12.2297 16.1225 14.4737 14.0036 14.4737 14.0036C14.4737 14.0036 14.9783 13.5536 14.7805 13.2022C14.5826 12.8508 14.0865 13.2884 14.0865 13.2884Z" fill="#EB8B85"/>
</svg>

<svg width="16" height="16" fill="none" xmlns="http://www.w3.org/2000/svg"><path fill-rule="evenodd" clip-rule="evenodd" d="M14.086 13.288s-2.017 1.619-6.032.949c-3.047-.508-4.671-3.866-4.671-5.671 0-4.28 3.167-5.254 5.308-5.254 2.142 0 3.539 2.088 3.539 3.705 0 1.616-1.144 3.03-2.923 3.03-1.779 0-2.306-1.25-2.306-2.397 0-1.149.93-1.553 1.777-1.553.847 0 1.137.723 1.137 1.345 0 .621-.482.844-.885.844-.402 0-.442-.203-.596-.416-.154-.213.197-1.021-.38-1.021s-.685.928-.685.928.21 1.792 1.938 1.761c1.728-.03 2.548-1.366 2.31-2.689-.239-1.322-1.522-2.728-3.775-2.444-2.252.284-3.172 2.56-2.766 4.992.405 2.433 3.319 3.842 5.61 3.335 2.29-.507 4.573-2.166 4.573-6.37 0-4.206-3.642-6.734-7.985-6.317C2.93.46.235 4.258.408 8.82c.172 4.562 4.501 7.046 8.161 7.174 3.66.128 5.905-1.99 5.905-1.99s.504-.45.306-.802c-.197-.351-.694.086-.694.086Z" fill="#EB8B85"/></svg>
